X:1
T:Title
%%score [ 1 2 ]
L:1/8
Q:1/4=120
M:2/2
K:C
V:1 treble nm="Soprano" snm="S"
V:2 bass nm="Bass" snm="B"
V:1
 d2"^Fair if you expect admiring" d2 d2 e2 | d2 d2 B2 G2 | d2 d2 d2 e2 | %3
w: ~Fair if you ex-|pect ad- mir- ing,|Sweet, if you pro-|
w: ~Fates, if you rule|lov- ers' for- tune,|Stars, if men your|
 d2 d2 B2"^Thomas Campion\n(1567-1620)" G2 |[M:2/2] c4 B4 | A6 B2 |[M:3/2] A2 G2 (A3 G) G4 || %7
w: voke de- sir- ing,|Grace dear|love with|kind re- quit\- * ing.|
w: powers im- por- tune,|Yield re-|lief by|your re- lent\- * ing.|
[M:2/2] d2 d2 d2 e2 |[M:2/2] d2 d2 B2 G2 | d2 d2 d2 e2 | d2 d2 B2 G2 | c4 B4 | A6 B2 | %13
w: Fond, but if thy|light be blind- ness,|Fair, if thou af-|fect un- kind- ness,|Fly, both|love and|
w: Time, if sor- row|be not end- less,|Hope made vain, and|pi- ty friend- less,|Help to|ease my|
[M:3/2] A2 G2 (A3 G) G4 ||[M:2/2] A2 A2 A2 B2 | c6 (dc) |[M:3/2] B2 A2 (B3 A) A4 |: %17
w: love's de- light\- * ing.|Then, when hope is|lost and *|love is scorn\- * ed,|
w: long la- ment\- * ing.|But if griefs re-|main still *|un- re- dress\- * ed,|
[M:2/2] B4 AGFE | D2 G2 A2 c2 | B3 A GABc |[M:3/2] d2 B2 A4 G4 :| %21
w: I'll bu- ry my de-|sires, and quench the|fires that e- ver yet in|vain have burn- ed.|
w: I'll fly to her a-|gain, and she for|pi- ty to re- new my|hopes dis- tress- ed.|
V:2
 G,2 G,2 G,2 C,2 | G,2 G,2 G,4 | G,2 G,2 G,2 C,2 | G,2 G,2 G,4 |[M:2/2] F,4 G,4 | D,6 B,,2 | %6
[M:3/2] C,2 E,2 D,4 G,,4 ||[M:2/2] G,2 G,2 G,2 C,2 |[M:2/2] G,2 G,2 G,4 | G,2 G,2 G,2 C,2 | %10
 G,2 G,2 G,4 | F,4 G,4 | D,6 B,,2 |[M:3/2] C,2 E,2 D,4 G,,4 ||[M:2/2] D,2 D,2 D,2 G,2 | F,6 D,2 | %16
[M:3/2] E,2 F,2 E,4 A,,4 |:[M:2/2] G,,4 D,4- | D,2 B,,2 A,,4 | G,,2 G,3 ^F, E,2 | %20
[M:3/2] D,2 G,,2 D,4 G,,4 :| %21

